src/assets/images/fca-shield.svg

<svg xmlns="http://www.w3.org/2000/svg" width="16" height="20" viewBox="0 0 16 20" fill="none">
  <path d="M7.82202 0.836165C7.665 0.831922 7.51223 0.887089 7.39553 0.99318C7.39553 0.99318 4.33586 3.6879 0.673586 3.6879C0.336215 3.6879 0.0625 3.96161 0.0625 4.29899V9.29376C0.0625 12.0139 1.32074 16.491 7.56528 19.1199C7.71805 19.1857 7.88779 19.1857 8.04056 19.1199C14.2851 16.491 15.5433 12.0139 15.5433 9.29376V4.29899C15.5433 3.96161 15.2696 3.6879 14.9323 3.6879C11.27 3.6879 8.21031 0.99318 8.21031 0.99318C8.10422 0.895576 7.9663 0.840409 7.82202 0.836165ZM7.80292 2.23233C8.64316 2.90919 11.1066 4.6406 14.3212 4.85915V9.29376C14.3212 11.632 13.4215 15.4067 7.80292 17.8765C2.18433 15.4067 1.28467 11.632 1.28467 9.29376V4.85915C4.49924 4.6406 6.96268 2.90919 7.80292 2.23233ZM10.8456 7.34805C10.6886 7.35441 10.538 7.42019 10.4255 7.53265L6.78444 11.1758L5.18034 9.5696C5.02545 9.41046 4.79841 9.34681 4.58411 9.40198C4.36981 9.45714 4.20218 9.62477 4.14701 9.83907C4.09185 10.0534 4.1555 10.2804 4.31464 10.4353L6.35159 12.4723C6.59136 12.7099 6.97753 12.7099 7.2173 12.4723L11.2912 8.39835C11.4716 8.22224 11.5246 7.95277 11.427 7.72149C11.3294 7.49021 11.0981 7.34168 10.8456 7.34805Z" fill="#F2F5F6"/>
</svg>

<svg xmlns="http://www.w3.org/2000/svg" width="16" height="20" fill="none"><path fill="#F2F5F6" d="M7.822.836a.6.6 0 0 0-.426.157S4.336 3.688.674 3.688a.61.61 0 0 0-.611.611v4.995c0 2.72 1.258 7.197 7.502 9.826a.6.6 0 0 0 .476 0c6.244-2.629 7.502-7.106 7.502-9.826V4.299a.61.61 0 0 0-.61-.611C11.27 3.688 8.21.993 8.21.993a.6.6 0 0 0-.388-.157m-.02 1.396c.841.677 3.305 2.409 6.52 2.627v4.435c0 2.338-.9 6.113-6.52 8.583-5.618-2.47-6.517-6.245-6.517-8.583V4.859c3.214-.218 5.678-1.95 6.518-2.627m3.044 5.116a.63.63 0 0 0-.42.185l-3.642 3.643L5.18 9.57a.62.62 0 0 0-.596-.168.61.61 0 0 0-.437.437.62.62 0 0 0 .168.596l2.037 2.037c.24.238.626.238.865 0l4.074-4.074a.614.614 0 0 0-.445-1.05"/></svg>
